X:1
T:4 Gesänge, Op.46
T:Magyarisch
T:2. Magyarisch
T:Johannes Brahms
T:Georg Friedrich Daumer
T:4 Gesänge, Op.46
T:OpenScore (CC0)
T:OpenScore (CC0)
C:Johannes Brahms
Z:Georg Friedrich Daumer
Z:OpenScore (CC0)
%%score 1 { ( 2 5 ) | ( 3 4 6 ) }
L:1/8
Q:1/4=85
M:2/4
K:A
V:1 treble nm="Voice"
V:2 bass nm="Piano"
V:5 bass 
V:3 bass 
V:4 bass 
V:6 bass 
V:1
"^Andante" z4 | z4 | z4 | z4 | z4 | E3 E | c2 d2 | e3 d | (cB) (Ad) | c2 B2 | A2 A2 | d3 d | %12
w: |||||Sah dem|ed- len|Bild- nis|in * des *|Au- ges|all- zu-|sü- ßen|
 c2 (BA) |{G} B3 z | c2 d2 | e3 d | (cB) A d | c2 B2 | z2 A2- | A2 d2 | (c2 B) A |{G} B3 z | B3 B | %23
w: Wun- der- *|schein,|büß- te|so des|ei- * ge- nen|Au- ges|hei-|* tern|Schim- * mer|ein.|Herr, mein|
 (cB) A2 | B3/2 B/ c A | (cA) B2 | =c3/2 c/ d B | z4 | e3/2 e/ =f2- | f d _B A | (A2 ^G2) | z4 | %32
w: Gott, * was|hast du  doch ge-|bild- * et|uns zu Jam- mer,||uns zu Jam-|* mer und zu|Qual, _||
 =B3/2 B/ ^c d | e2 A2 | d2 ^f2 | (eA) (Bd) | c3 B | A2 z2 | z4 | z4 | z E2 E | c2 d2 | e3 d | %43
w: sol- che dunke- le|Ster- ne|mit so|lich- * tem *|Zau- ber-|strahl!|||Mich ge-|blen- det|hat für|
 (cB) (Ad) | c2 B2 | A3 A | d3 d | c2 (BA) |{G} B3 z | B3 B | (cB) A2 | B3/2 B/ c A | (cA) B2 | %53
w: al- * le *|Won- nen|die- ser|Er- de|je- ne *|Pracht;|all- um-|her, * wo|mei- ne Bli- cke|for- * schen,|
 c2 d2 | e3 z | d4 | f4 | (eA) (Bd) | (cB) (cd) | (cB) (cf) | (ed) (cB) | (e2 c2- | c2) B2 | A4 | %64
w: ist es|Nacht,|all|um-|her, * wo *|mei- * ne *|Bli- * cke *|for- * schen, *|ist _|_ es|Nacht,|
 z4 | z2!p! c2- | c2 B2 | A4 | z4 | z4 | z4 | !fermata!z4 |] %72
w: |ist|_ es|Nacht.|||||
V:2
!p! ([E,A,C]2 [E,A,D]2 | [E,A,E]3 [E,G,D]) | ([E,A,C]2 [E,G,B,]2 |!>(! [C,F,A,]2 [F,A,D]2 | %4
 [E,A,C]4 |!p! [E,G,B,]4)!>)! |[K:treble] ([Cc]E[Dd]G | [Ee]A[Dd]G) | ([CAc][B,GB][A,FA][DFd] | %9
 [CAc]E[B,GB]E) | ([A,A]C[A,A]C) | ([Dd]F[Dd]F) | ([C^Ec]G[B,FB][A,A] | [G,G]E[B,B][=DE]) | %14
 ([Cc]E[Dd]G | [Ee]A[Dd]G) | ([CAc][B,GB][A,FA][DFd] | [CAc]E[B,GB]E) | ([A,A]C[A,A]C) | %19
 ([Dd]F[Dd]F) | ([^Ec]G[B,B][A,A]) | ([G,G]E[B,B]E) |!p! e4 | e4 | e4 | e4 | %26
 [A=c]>"_cresc."[Ac] [Bd][EB] | [Bd]>[Bd] [=ce][Ac] | [=ce]>[ce]!f! ([d=f][_Bd] | %29
 [=F_B] [DF]2 [=C^F]) |!p! (E2 E2 | E2 E2) | E2 x F | [=G,A,EA]4 | ([F,F]D[^G,^G]D | %35
 [A,A]C[F,F]D) | ([A,A]E[G,G])E | (A E2"_dim." D- | D C2 B,) |[K:bass]!>(! (A,2 E,2- | %40
 E,2 E,2)!>)! | ([E,A,C]2 [E,A,D]2 | [E,A,E]2 [E,G,D]2) | ([E,A,C][E,G,B,][C,F,A,][F,A,D] | %44
 [E,A,C]2 [D,G,B,]2) | ([C,F,A,]4 | [D,F,B,D]4) | ([^E,G,C]2 B,A,) |{[E,G,]} [G,B,]4 | %49
[K:treble]!p! (e2 e2 | e2 e2) | (e2 e2 | e2 e2) |!<(! [EAc]2 [Ad]2 | [=GAe]4!<)! | %55
 z ([FA][df][FA] | z [F^G][df][FG]) |!<(! ([Ee][FA][FB][Fd] | [^Ec][FB][Ec][Fd] | %59
 [^Ec][FB][Ec]!<)![Fcf]) | (ed cB) | [EAe]4 | [DEG]4 |!>(! [A,DA]4 | [A,D=F]4!>)! | [A,CE]4 | %66
 [G,DE]4 |[K:bass] (E2 C2- |!>(! C2 B,2) | (A,2 E,2- | E,2!>)! E,2) | %71
!pp!{!fermata!^D,!fermata!E,!fermata!F,} !fermata!E,4 |] %72
V:3
 ([A,,,A,,]2 [B,,,A,,]2 | [C,,A,,]3 [B,,,A,,]) | ([A,,,A,,]2 E,,2 | F,,2 D,,2 | E,,4 | E,,4) | %6
 A,"^legato"E,B,E, | CE,B,E, | ([A,,A,][E,,E,][F,,F,][D,,D,] | [E,,E,]A,,E,G,) | (F,,C,F,A,) | %11
 (B,,F,B,D) | G,^E, F,2 | ([E,,B,,]E,G,B,) | A,E,B,E, | CE,B,E, | ([A,,A,][E,,E,][F,,F,][D,,D,]) | %17
 (E,,A,,E,G,) | (F,,C,F,A,) | ([D,,D,]A,,B,,,B,,) | C,,C, [D,,D,][^D,,^D,] | (E,,B,,E,G,) | %22
 [E,B,]2 [E,B,][E,B,] | [A,C][E,B,] [C,A,]2 | [E,B,]2 [A,C][C,A,] | [A,C][C,A,] [E,B,]2 | %26
 [A,=C]>[A,C] [B,D][E,B,] | [B,D]>[B,D] [=CE][A,C] | [=CE]2 (D,,=F,, | _B,,D,-D,^D,) | %30
 [E,B,]2 [E,B,][E,B,] | [A,^C][E,B,] [E,A,]2 | [E,B,]2!<(! [A,,C,][F,,A,,D,] | [C,,A,,E,]4!<)! | %34
 [D,,D,]A,,[B,,,B,,]D, | C,2 B,,2 | C,2 D,2 | C,2 B,,2 | E,2 D,2 | A,,4 | G,,4 | %41
!pp! ([A,,,A,,]2 [B,,,A,,]2 | [C,,A,,]2 [B,,,A,,]2) | ([A,,,A,,]E,,F,,D,,) | E,,4 | F,,4 | %46
 [B,,,B,,]4 | ([C,,C,]2 [D,,D,][^D,,=C,]) | (B,,2 E,2) | [E,B,]2 [E,B,][E,B,] | %50
 [A,C][E,B,] [C,A,]2 | [E,B,]2 [A,C][C,A,] | [A,C][C,A,] [E,B,]2 | [A,C]2 [F,A,D]2 | [C,A,E]4 | %55
 ([D,F,][A,D][D,F,][A,D] | [B,,D,][^G,D][B,,D,][G,D]) | ([C,E,][F,C][D,B,][B,,B,] | %58
 [C,G,][D,F,][C,G,][B,,B,] | [C,G,][D,F,][C,G,][^A,,F,^A,]) | (F, B,2 D) | [E,A,C]4 | [E,,E,]4 | %63
 A,,4 | [D,,D,]2 [B,,,B,,]2 |!pp! [E,,E,]4 | [E,,E,]4 | [E,,C,]4 | [E,,D,]4 | [E,,A,,]4 | %70
 [E,,G,,]4 | !fermata![A,,,A,,]4 |] %72
V:4
 x4 | x4 | x4 | x4 | x4 | x4 | (A,,2 B,,2 | C,2 B,,2) | x4 | x4 | x4 | x4 | C,2 D,^D, | x4 | %14
 (A,,2 B,,2 | C,2 B,,2) | x4 | x4 | x4 | x4 | x4 | x4 | x4 | x4 | x4 | x4 | x4 | x4 | x2 D,,2- | %29
 D,,2 D,,^D,, | [E,,=B,,]2 [E,,B,,][E,,B,,] | [A,,^C,][E,,B,,] [C,,A,,]2 | [E,,B,,]2 x2 | x4 | x4 | %35
 C,,F,,D,,B,,, | E,,4 | E,,4 | E,,4 | E,,4 | E,,4 | x4 | x4 | x4 | x4 | x4 | x4 | x4 | E,,4 | x4 | %50
 x4 | x4 | x4 | x4 | x4 | x4 | x4 | x4 | x4 | x4 | B,,2 D,2 | x4 | x4 | [=F,,=F,]2 [D,,D,]2- | x4 | %65
 x4 | x4 | x4 | x4 | x4 | x4 | x4 |] %72
V:5
 x4 | x4 | x4 | x4 | x4 | x4 |[K:treble] x4 | x4 | x4 | x4 | x4 | x4 | x4 | x4 | x4 | x4 | x4 | %17
 x4 | x4 | x4 | C2 F2 | x4 | [EB]2 [EB][EB] | [Ac][EB] [CA]2 | [EB]2 [Ac][CA] | [Ac][CA] [EB]2 | %26
 x4 | x4 | x4 | x4 | x4 | x4 | x2 [A,C][A,D] | x4 | x4 | x4 | x4 | (A,2 G,2) | x4 |[K:bass] C,4 | %40
 [B,,D,]4 | x4 | x4 | x4 | x4 | x4 | x4 | x2 F,2 | x4 |[K:treble] [EB]2 [EB][EB] | [Ac][EB] [EA]2 | %51
 [EB]2 [Ac][EA] | [Ac][EA] [EB]2 | x4 | x4 | x4 | x4 | x4 | x4 | x4 | [FB]2 [=FA]2 | x4 | x4 | x4 | %64
 x4 | x4 | x4 |[K:bass] [E,A,]4 | [E,G,]4 | C,4 | D,4 | C,4 |] %72
V:6
 x4 | x4 | x4 | x4 | x4 | x4 | x4 | x4 | x4 | x4 | x4 | x4 | x4 | x4 | x4 | x4 | x4 | x4 | x4 | %19
 x4 | x4 | x4 | x4 | x4 | x4 | x4 | x4 | x4 | x4 | x4 | x4 | x4 | x4 | x4 | x4 | x4 | x4 | x4 | %38
 A,,2 G,,2 | x4 | x4 | x4 | x4 | x4 | x4 | x4 | x4 | x4 | x4 | x4 | x4 | x4 | x4 | x4 | x4 | x4 | %56
 x4 | x4 | x4 | x4 | x4 | x4 | x4 | x4 | x4 | x4 | x4 | x4 | x4 | x4 | x4 | x4 |] %72

